svgs/fold_craft_launcher.svg

<svg width="192" height="192" viewBox="0 0 192 192" fill="none" xmlns="http://www.w3.org/2000/svg">
<path d="M96 167L31.0494 138.13C28.8828 137.167 27.4865 135.018 27.4865 132.647V103.144M96 167V129.69M96 167L160.951 138.13C163.117 137.167 164.513 135.018 164.513 132.647V103.144M96 99.9336V129.69M96 99.9336L72.1257 90.6834M96 99.9336L119.874 90.6834M96 129.69L76.8039 122.252C75.7829 121.857 75.11 120.874 75.11 119.78V119.703C75.11 118.707 74.5261 117.803 73.6179 117.393C72.7096 116.984 72.1257 116.08 72.1257 115.083V110.627M96 129.69L115.196 122.252C116.217 121.857 116.89 120.874 116.89 119.78V119.703C116.89 118.707 117.474 117.803 118.382 117.393C119.29 116.984 119.874 116.08 119.874 115.083V110.627M21 70.8745V96.5211C21 98.9983 22.5224 101.221 24.8323 102.116L27.4865 103.144M21 70.8745L43.1022 79.4381M21 70.8745L58.5 58.4373M27.4865 103.144L37.0639 106.855C38.0914 107.253 39.1983 106.495 39.1983 105.393C39.1983 104.302 40.2847 103.545 41.3083 103.922L43.1022 104.583M72.1257 90.6834L43.1022 79.4381M72.1257 90.6834V110.627M43.1022 79.4381V104.583M43.1022 104.583L53.5418 117.23C55.5652 119.681 59.1492 120.129 61.7137 118.251L72.1257 110.627M171 70.8745V96.5211C171 98.9983 169.478 101.221 167.168 102.116L164.513 103.144M171 70.8745L148.898 79.4381M171 70.8745L133.5 58.4373M164.513 103.144L154.936 106.855C153.909 107.253 152.802 106.495 152.802 105.393C152.802 104.302 151.715 103.545 150.692 103.922L148.898 104.583M119.874 90.6834L148.898 79.4381M119.874 90.6834V110.627M148.898 79.4381V104.583M148.898 104.583L138.458 117.23C136.435 119.681 132.851 120.129 130.286 118.251L119.874 110.627M96 34.4396V76M96 34.4396L68.9067 26.2835C65.0197 25.1134 61 27.7113 61 31.3935V61.586C61 63.9025 62.648 65.9599 65.0933 66.696L96 76M96 34.4396L123.093 26.2835C126.98 25.1134 131 27.7113 131 31.3935V61.586C131 63.9025 129.352 65.9599 126.907 66.696L96 76" stroke="black" stroke-width="10" stroke-linecap="round" stroke-linejoin="round"/>
</svg>

<svg xmlns="http://www.w3.org/2000/svg" width="192" height="192" fill="none" viewBox="0 0 192 192"><path stroke="#000" stroke-linecap="round" stroke-linejoin="round" stroke-width="10" d="m96 167-64.95-28.87a6 6 0 0 1-3.564-5.483v-29.503M96 167v-37.31M96 167l64.951-28.87a6 6 0 0 0 3.562-5.483v-29.503M96 99.934v29.756m0-29.756-23.874-9.25M96 99.933l23.874-9.25M96 129.69l-19.196-7.438a2.65 2.65 0 0 1-1.694-2.472v-.077c0-.996-.584-1.9-1.492-2.31a2.53 2.53 0 0 1-1.492-2.31v-4.456M96 129.69l19.196-7.438a2.65 2.65 0 0 0 1.694-2.472v-.077c0-.996.584-1.9 1.492-2.31a2.53 2.53 0 0 0 1.492-2.31v-4.456M21 70.875V96.52a6 6 0 0 0 3.832 5.595l2.654 1.028M21 70.874l22.102 8.564M21 70.874l37.5-12.437m-31.013 44.707 9.577 3.711a1.568 1.568 0 0 0 2.134-1.462 1.568 1.568 0 0 1 2.11-1.471l1.794.661m29.024-13.9L43.102 79.438m29.024 11.245v19.944M43.102 79.438v25.145m0 0 10.44 12.647a6 6 0 0 0 8.172 1.021l10.412-7.624M171 70.875V96.52a6 6 0 0 1-3.832 5.595l-2.655 1.028M171 70.874l-22.102 8.564M171 70.874l-37.5-12.437m31.013 44.707-9.577 3.711a1.568 1.568 0 0 1-2.134-1.462 1.568 1.568 0 0 0-2.11-1.471l-1.794.661m-29.024-13.9 29.024-11.245m-29.024 11.245v19.944m29.024-31.189v25.145m0 0-10.44 12.647a6 6 0 0 1-8.172 1.021l-10.412-7.624M96 34.44V76m0-41.56-27.093-8.156C65.02 25.114 61 27.71 61 31.394v30.192c0 2.317 1.648 4.374 4.093 5.11L96 76m0-41.56 27.093-8.156c3.887-1.17 7.907 1.427 7.907 5.11v30.192c0 2.317-1.648 4.374-4.093 5.11L96 76"/></svg>
